NotoEmoji/1f1ff-1f1e6.svg

<svg xmlns="http://www.w3.org/2000/svg" viewBox="0 0 36 36"><path fill="#DE3830" d="M32 5H6.5L19 13.5h17V9c0-2.209-1.791-4-4-4z"/><path fill="#002395" d="M6.5 31H32c2.209 0 4-1.791 4-4v-4.5H19L6.5 31z"/><path fill="#141414" d="M0 11v14l10.5-7z"/><path fill="#FFB611" d="M0 9v2l10.5 7L0 25v2l13.5-9z"/><path fill="#007A4D" d="M3.541 5.028C1.548 5.257 0 6.947 0 9l13.5 9L0 27c0 2.053 1.548 3.743 3.541 3.972L18.5 20.5H36v-5H18.5L3.541 5.028z"/><path fill="#FFF" d="M6.5 5H4c-.156 0-.308.011-.459.028L18.5 15.5H36v-2H19L6.5 5zM3.541 30.972c.151.017.303.028.459.028h2.5L19 22.5h17v-2H18.5L3.541 30.972z"/></svg>

<svg viewBox="0 0 36 36" xmlns="http://www.w3.org/2000/svg"><path d="m32 5h-25.5l12.5 8.5h17v-4.5c0-2.21-1.79-4-4-4z" fill="#de3830"/><path d="m6.5 31h25.5c2.21 0 4-1.79 4-4v-4.5h-17z" fill="#002395"/><path d="m0 11v14l10.5-7z" fill="#141414"/><path d="m0 9v2l10.5 7-10.5 7v2l13.5-9z" fill="#ffb611"/><path d="m3.54 5.03c-1.99.23-3.54 1.92-3.54 3.97l13.5 9-13.5 9c0 2.05 1.55 3.74 3.54 3.97l14.96-10.47h17.5v-5h-17.5z" fill="#007a4d"/><path d="m6.5 5h-2.5c-.16 0-.31.01-.46.03l14.96 10.47h17.5v-2h-17zm-2.96 25.97c.15.02.3.03.46.03h2.5l12.5-8.5h17v-2h-17.5z" fill="#fff"/></svg>
